app/dist/common/images/emerald.svg

<svg height="18" viewBox="0 0 18 18" width="18" xmlns="http://www.w3.org/2000/svg"><path d="m0 0h18v18h-18z" fill="#f0f3fa"/><path d="m9 2 5 5-2.12 2 2.12 2-5 5-5-5 2.12-2-2.12-2zm-2.12 7.74-.85.76h1.69zm1.62 1.76h-2.47l2.47 2.5zm1 2.5v-2.5h2.47zm2.47-3.5h-1.69l.84-.76zm-.85-2.24.85-.76h-1.69zm-1.62-1.76h2.47l-2.47-2.5zm-1-2.5v2.5h-2.47zm-2.47 3.5.85.76.84-.76zm2.47.67-.87.83.87.83zm1 0 .87.83-.87.83z" fill="#91d500" fill-rule="evenodd"/></svg>

<!-- by TradingView --><svg width="18" height="18" viewBox="0 0 18 18" xmlns="http://www.w3.org/2000/svg"><path fill="#F0F3FA" d="M0 0h18v18H0z"/><path fill-rule="evenodd" d="m9 2 5 5-2.12 2L14 11l-5 5-5-5 2.12-2L4 7l5-5ZM6.88 9.74l-.85.76h1.69l-.84-.76ZM8.5 11.5H6.03L8.5 14v-2.5Zm1 2.5v-2.5h2.47L9.5 14Zm2.47-3.5h-1.69l.84-.76.85.76Zm-.85-2.24.85-.76h-1.69l.84.76ZM9.5 6.5h2.47L9.5 4v2.5ZM8.5 4v2.5H6.03L8.5 4ZM6.03 7.5l.85.76.84-.76H6.03Zm2.47.67L7.63 9l.87.83V8.17Zm1 0 .87.83-.87.83V8.17Z" fill="#91D500"/></svg>
